src/assets/icon/flagBrasil.svg

<svg viewBox="0 0 50 50" fill="none" xmlns="http://www.w3.org/2000/svg">
<g clip-path="url(#clip0_27_72)">
<path d="M49.1383 41.3792H0.862657C0.386584 41.3792 0.000549316 40.9932 0.000549316 40.5171V9.48271C0.000549316 9.00664 0.386584 8.62061 0.862657 8.62061H49.1384C49.6145 8.62061 50.0005 9.00664 50.0005 9.48271V40.5171C50.0005 40.9933 49.6144 41.3792 49.1383 41.3792Z" fill="#73AF00"/>
<path d="M24.5523 13.2039L6.38279 24.2636C5.83094 24.5994 5.83094 25.4004 6.38279 25.7363L24.5523 36.7961C24.8276 36.9637 25.1734 36.9637 25.4488 36.7961L43.6184 25.7364C44.1702 25.4006 44.1702 24.5996 43.6184 24.2637L25.4488 13.2039C25.1735 13.0364 24.8276 13.0364 24.5523 13.2039Z" fill="#FFE15A"/>
<path d="M25.0006 31.8965C28.8094 31.8965 31.8971 28.8088 31.8971 25C31.8971 21.1912 28.8094 18.1035 25.0006 18.1035C21.1918 18.1035 18.1041 21.1912 18.1041 25C18.1041 28.8088 21.1918 31.8965 25.0006 31.8965Z" fill="#41479B"/>
<path d="M19.0825 21.472C18.7571 22.0167 18.5058 22.6087 18.3398 23.2373C22.163 22.9496 27.8185 24.0191 31.4181 27.512C31.6531 26.9123 31.8081 26.2734 31.8664 25.6056C28.1495 22.4773 23.0109 21.3649 19.0825 21.472Z" fill="#F5F5F5"/>
<path d="M25.2857 27.3535L25.4693 27.904L26.0497 27.9085C26.1248 27.9091 26.156 28.005 26.0956 28.0496L25.6287 28.3945L25.8038 28.9478C25.8265 29.0195 25.7448 29.0787 25.6838 29.035L25.2116 28.6975L24.7395 29.035C24.6783 29.0787 24.5968 29.0195 24.6194 28.9478L24.7945 28.3945L24.3276 28.0496C24.2672 28.005 24.2983 27.9091 24.3734 27.9085L24.9538 27.904L25.1374 27.3535C25.1611 27.2822 25.2619 27.2822 25.2857 27.3535Z" fill="#F5F5F5"/>
<path d="M27.5416 28.7777L27.6206 29.0147L27.8704 29.0166C27.9027 29.0168 27.9162 29.0581 27.8901 29.0773L27.6891 29.2257L27.7644 29.4639C27.7742 29.4947 27.7391 29.5202 27.7128 29.5014L27.5095 29.3562L27.3063 29.5014C27.28 29.5202 27.2449 29.4947 27.2547 29.4639L27.3299 29.2257L27.129 29.0773C27.103 29.0582 27.1164 29.0169 27.1487 29.0166L27.3985 29.0147L27.4775 28.7777C27.4879 28.747 27.5313 28.747 27.5416 28.7777Z" fill="#F5F5F5"/>
<path d="M24.3106 26.3075L24.3896 26.5444L24.6394 26.5464C24.6717 26.5466 24.6852 26.5879 24.6591 26.6071L24.4581 26.7555L24.5334 26.9936C24.5432 27.0245 24.5081 27.05 24.4818 27.0311L24.2786 26.8859L24.0753 27.0311C24.0491 27.05 24.0139 27.0245 24.0237 26.9936L24.099 26.7555L23.898 26.6071C23.872 26.588 23.8854 26.5467 23.9177 26.5464L24.1675 26.5444L24.2465 26.3075C24.2569 26.2768 24.3003 26.2768 24.3106 26.3075Z" fill="#F5F5F5"/>
<path d="M19.9349 26.0202L20.0139 26.2571L20.2637 26.2591C20.2961 26.2593 20.3095 26.3006 20.2835 26.3198L20.0825 26.4682L20.1578 26.7064C20.1676 26.7372 20.1325 26.7627 20.1061 26.7439L19.9029 26.5986L19.6997 26.7439C19.6734 26.7627 19.6383 26.7372 19.648 26.7064L19.7233 26.4682L19.5223 26.3198C19.4964 26.3007 19.5097 26.2594 19.5421 26.2591L19.7919 26.2571L19.8709 26.0202C19.8813 25.9896 19.9247 25.9896 19.9349 26.0202Z" fill="#F5F5F5"/>
<path d="M23.5954 28.6959L23.6744 28.9328L23.9242 28.9348C23.9565 28.935 23.97 28.9763 23.9439 28.9955L23.7429 29.1438L23.8182 29.382C23.828 29.4129 23.7929 29.4384 23.7666 29.4195L23.5633 29.2743L23.3601 29.4195C23.3338 29.4384 23.2987 29.4129 23.3085 29.382L23.3838 29.1438L23.1828 28.9955C23.1568 28.9764 23.1702 28.9351 23.2025 28.9348L23.4523 28.9328L23.5313 28.6959C23.5418 28.6653 23.5852 28.6653 23.5954 28.6959Z" fill="#F5F5F5"/>
<path d="M21.5813 25.8549L21.6459 26.0486L21.8502 26.0503C21.8766 26.0505 21.8876 26.0843 21.8664 26.1L21.7021 26.2213L21.7637 26.416C21.7717 26.4412 21.743 26.4621 21.7214 26.4467L21.5552 26.3279L21.389 26.4467C21.3674 26.4621 21.3388 26.4412 21.3467 26.416L21.4083 26.2213L21.244 26.1C21.2228 26.0843 21.2336 26.0505 21.2602 26.0503L21.4645 26.0486L21.5291 25.8549C21.5374 25.8298 21.5729 25.8298 21.5813 25.8549Z" fill="#F5F5F5"/>
<path d="M27.7169 21.8548L27.7977 22.0972L28.0532 22.0991C28.0863 22.0993 28.1 22.1416 28.0733 22.1612L27.8679 22.313L27.9449 22.5566C27.955 22.5882 27.9189 22.6143 27.8921 22.595L27.6842 22.4464L27.4763 22.595C27.4493 22.6144 27.4135 22.5881 27.4234 22.5566L27.5005 22.313L27.295 22.1612C27.2683 22.1416 27.2821 22.0994 27.3151 22.0991L27.5706 22.0972L27.6515 21.8548C27.662 21.8233 27.7064 21.8233 27.7169 21.8548Z" fill="#F5F5F5"/>
<path d="M20.2164 24.6695L20.281 24.8633L20.4853 24.865C20.5117 24.8652 20.5227 24.8989 20.5015 24.9147L20.3372 25.036L20.3988 25.2307C20.4068 25.2559 20.3781 25.2768 20.3565 25.2613L20.1903 25.1426L20.0241 25.2613C20.0025 25.2768 19.9739 25.2559 19.9818 25.2307L20.0434 25.036L19.8791 24.9147C19.8579 24.8989 19.8687 24.8653 19.8953 24.865L20.0996 24.8633L20.1642 24.6695C20.1725 24.6445 20.208 24.6445 20.2164 24.6695Z" fill="#F5F5F5"/>
<path d="M21.2026 27.4004L21.3004 27.694L21.6098 27.6963C21.6499 27.6966 21.6665 27.7477 21.6342 27.7715L21.3853 27.9553L21.4787 28.2502C21.4908 28.2884 21.4473 28.32 21.4147 28.2967L21.1629 28.1168L20.9112 28.2967C20.8787 28.3199 20.8351 28.2884 20.8472 28.2502L20.9406 27.9553L20.6917 27.7715C20.6594 27.7477 20.676 27.6966 20.7161 27.6963L21.0254 27.694L21.1233 27.4004C21.1363 27.3625 21.19 27.3625 21.2026 27.4004Z" fill="#F5F5F5"/>
<path d="M28.7995 28.8393L28.861 29.0239L29.0557 29.0254C29.0809 29.0256 29.0913 29.0577 29.0711 29.0727L28.9146 29.1883L28.9732 29.3738C28.9809 29.3979 28.9535 29.4177 28.9329 29.403L28.7746 29.2898L28.6162 29.403C28.5957 29.4177 28.5684 29.3979 28.5759 29.3738L28.6346 29.1883L28.478 29.0727C28.4578 29.0577 28.4683 29.0256 28.4935 29.0254L28.6881 29.0239L28.7496 28.8393C28.7577 28.8153 28.7916 28.8153 28.7995 28.8393Z" fill="#F5F5F5"/>
<path d="M29.4804 27.4301L29.5594 27.667L29.8092 27.6689C29.8415 27.6691 29.855 27.7104 29.8289 27.7297L29.6279 27.878L29.7032 28.1162C29.713 28.147 29.6779 28.1725 29.6516 28.1537L29.4483 28.0085L29.2451 28.1537C29.2189 28.1725 29.1837 28.147 29.1935 28.1162L29.2688 27.878L29.0678 27.7297C29.0418 27.7105 29.0552 27.6692 29.0875 27.6689L29.3373 27.667L29.4163 27.4301C29.4267 27.3993 29.4701 27.3993 29.4804 27.4301Z" fill="#F5F5F5"/>
</g>
<defs>
<clipPath id="clip0_27_72">
<rect width="50" height="50" fill="white"/>
</clipPath>
</defs>
</svg>

<svg xmlns="http://www.w3.org/2000/svg" fill="none" viewBox="0 0 50 50"><g clip-path="url(#a)"><path fill="#73AF00" d="M49.138 41.38H.863A.862.862 0 0 1 0 40.516V9.483c0-.476.386-.862.862-.862h48.275c.477 0 .863.386.863.862v31.034a.862.862 0 0 1-.863.862Z"/><path fill="#FFE15A" d="m24.552 13.204-18.17 11.06a.862.862 0 0 0 0 1.472l18.17 11.06a.862.862 0 0 0 .897 0l18.17-11.06a.862.862 0 0 0 0-1.472l-18.17-11.06a.863.863 0 0 0-.897 0Z"/><path fill="#41479B" d="M25 31.896a6.897 6.897 0 1 0 0-13.793 6.897 6.897 0 0 0 0 13.793Z"/><path fill="#F5F5F5" d="M19.082 21.472a6.846 6.846 0 0 0-.742 1.765c3.823-.287 9.479.782 13.078 4.275.235-.6.39-1.239.448-1.906-3.716-3.129-8.855-4.241-12.784-4.134ZM25.286 27.354l.183.55.58.005c.076 0 .107.096.047.14l-.467.346.175.553a.078.078 0 0 1-.12.087l-.472-.337-.473.337a.078.078 0 0 1-.12-.087l.175-.553-.466-.345a.078.078 0 0 1 .045-.142l.58-.004.184-.55a.078.078 0 0 1 .149 0ZM27.542 28.778l.079.237.25.002c.032 0 .045.041.02.06l-.202.149.075.238a.034.034 0 0 1-.051.037l-.204-.145-.203.145a.034.034 0 0 1-.051-.037l.075-.238-.201-.149a.034.034 0 0 1 .02-.06l.25-.002.078-.237c.01-.031.054-.031.065 0ZM24.31 26.308l.08.236.25.002c.032 0 .045.042.02.061l-.202.149.075.238a.034.034 0 0 1-.051.037l-.203-.145-.204.145a.034.034 0 0 1-.051-.037l.075-.238-.201-.149a.034.034 0 0 1 .02-.06l.25-.003.079-.236c.01-.031.053-.031.064 0ZM19.935 26.02l.079.237.25.002c.032 0 .046.042.02.06l-.201.15.075.237a.034.034 0 0 1-.052.038l-.203-.145-.203.145a.034.034 0 0 1-.052-.038l.075-.238-.2-.148a.034.034 0 0 1 .02-.06l.249-.003.079-.237c.01-.03.054-.03.064 0ZM23.595 28.696l.08.237.25.002c.031 0 .045.041.019.06l-.201.149.075.238a.034.034 0 0 1-.051.037l-.204-.145-.203.145a.034.034 0 0 1-.052-.037l.076-.238-.201-.148a.034.034 0 0 1 .02-.061l.25-.002.078-.237c.01-.03.054-.03.064 0ZM21.581 25.855l.065.194.204.001c.027 0 .038.034.016.05l-.164.121.062.195a.028.028 0 0 1-.043.03l-.166-.118-.166.119a.028.028 0 0 1-.042-.031l.061-.195-.164-.121a.028.028 0 0 1 .016-.05l.204-.001.065-.194a.028.028 0 0 1 .052 0ZM27.717 21.855l.08.242.256.002c.033 0 .047.043.02.062l-.205.152.077.244a.034.034 0 0 1-.053.038l-.208-.149-.208.149c-.027.02-.063-.007-.053-.038l.078-.244-.206-.152a.034.034 0 0 1 .02-.062l.256-.002.08-.242a.034.034 0 0 1 .066 0ZM20.216 24.67l.065.193.204.002c.027 0 .038.034.017.05l-.165.121.062.195a.027.027 0 0 1-.043.03l-.166-.118-.166.118a.027.027 0 0 1-.042-.03l.061-.195-.164-.121a.028.028 0 0 1 .016-.05l.205-.002.064-.194c.008-.024.044-.024.052 0ZM21.203 27.4l.097.294.31.002c.04 0 .056.052.024.075l-.249.184.094.295a.042.042 0 0 1-.064.047l-.252-.18-.252.18a.042.042 0 0 1-.064-.047l.094-.295-.25-.183a.042.042 0 0 1 .025-.076l.31-.002.097-.294c.013-.037.067-.037.08 0ZM28.8 28.84l.061.184.195.001c.025 0 .035.033.015.048l-.156.115.058.186a.026.026 0 0 1-.04.029l-.158-.113-.159.113a.026.026 0 0 1-.04-.03l.059-.185-.157-.115a.026.026 0 0 1 .015-.048l.195-.001.062-.185c.008-.024.042-.024.05 0ZM29.48 27.43l.08.237.25.002c.032 0 .045.041.019.06l-.201.149.075.238a.034.034 0 0 1-.051.038l-.204-.145-.203.145a.034.034 0 0 1-.052-.038l.076-.238-.201-.148a.034.034 0 0 1 .02-.061l.25-.002.078-.237c.01-.03.054-.03.064 0Z"/></g><defs><clipPath id="a"><path fill="#fff" d="M0 0h50v50H0z"/></clipPath></defs></svg>
